X: 1
T: the Lakes of Sligo [D]
T: the Lass o' Gowrie
O: Trad
R: march
Z: 2000 John Chambers <jc:trillian.mit.edu>
M: 2/4
L: 1/8
K: D
 A/G/ \
| "D"FA AB/c/ | "Bm"d>e dc | "G"B>A Bd | "A7"e>d ef \
| "D"FA AB/c/ | "Bm"d>e fe | "G"dB "D"Af | "A7"e2 "D"d :|
|: d/e/ \
| "D"fa d>e | fa "(B7)"ag/f/ | "Em"gb e>f | gb "A7"ba/g/ \
| "D"fa/f/ "A7"ef/e/ | "Bm"de ff/e/ | "G"dB "D"Af | "A7"e2 "D"d :|
